Adwaita++/apps/16/mysql-workbench.svg

<svg height="16" width="16" xmlns="http://www.w3.org/2000/svg">
  <path d="m.86328125.84375c-.65892-.01398-.96769125.4412575-.83203125 1.2265625.0438.253123.26619063.6140176.74414062 1.2128906.53149998.665732.74499248 1.0302963.97656248 1.6601563.36511.992788.5337581 1.3248876.8300781 1.6347656.23072.241671.2310919.242612.0761719.734375-.23982.762063-.2903562 2.2906476-.0976562 3.009766.28798 1.07531.6435418 1.564453 1.1386719 1.564453.35283 0 .6425137-.296061.7460937-.761719.0362-.161676.1040806-.391305.1503906-.511719.08-.208831.1019257-.194454.4160157.31836.18189.297247.5298143.74102.7714843.984375.55912.563337 1.3252894 1.19647 1.3808594 1.142578.0236-.02274-.1996937-.35346-.4960937-.738282-1.0312801-2.9497975 2.0397974-.274514 5.2109372-1.210937 1.02563.355349 1.374832.517605 1.826172.841797l.476563.341797-.320313.0625c-.17683.03368-.563542.089367-.857422.123047-.61218.07073-1.013672.32428-1.013672.642578 0 .358718 1.222076 1.38636 2.447266 2.05664.58945.322508 1.156196.639398 1.259766.705078.27451.176834.348073.155398.277343-.076171-.14905-.48671-.651575-.961015-2.046875-1.933594-.81848-.570916-.825421-.549578.267578-.658203.779741-.07747 1.171876-.209548 1.171876-.396485 0-.08589-.394717-.542961-.878907-1.013671-.75785-.738486-1.015139-.92141-1.849609-1.328126-1.13678-.5523905-1.55062-.9905565-1.8125-1.9218745-.39072-1.389397-1.4409107-3.0207939-2.8378908-4.4042969-1.5232799-1.665414-3.3572668-2.0354546-5.1230468-2.6503906-.44898-.304067-1.4925932-.645472-2.00195315-.65625zm2.07031255 1.3457031a.85407393.64970859 34.436584 0 1 .6640624.2363281.85407393.64970859 34.436584 0 1 .2285157 1.0195313.85407393.64970859 34.436584 0 1 -1.0996094-.0488281.85407393.64970859 34.436584 0 1 -.2285156-1.0195313.85407393.64970859 34.436584 0 1 .4355469-.1875z" fill="#474747"/>
</svg>

<?xml version="1.0" encoding="UTF-8" standalone="no"?>
<svg
   xmlns:dc="http://purl.org/dc/elements/1.1/"
   xmlns:cc="http://creativecommons.org/ns#"
   xmlns:rdf="http://www.w3.org/1999/02/22-rdf-syntax-ns#"
   xmlns:svg="http://www.w3.org/2000/svg"
   xmlns="http://www.w3.org/2000/svg"
   xmlns:xlink="http://www.w3.org/1999/xlink"
   xmlns:sodipodi="http://sodipodi.sourceforge.net/DTD/sodipodi-0.dtd"
   xmlns:inkscape="http://www.inkscape.org/namespaces/inkscape"
   width="16"
   height="16"
   version="1.0"
   id="svg21"
   sodipodi:docname="mysql-workbench.svg"
   inkscape:version="0.92.4 (5da689c313, 2019-01-14)">
  <metadata
     id="metadata25">
    <rdf:RDF>
      <cc:Work
         rdf:about="">
        <dc:format>image/svg+xml</dc:format>
        <dc:type
           rdf:resource="http://purl.org/dc/dcmitype/StillImage" />
      </cc:Work>
    </rdf:RDF>
  </metadata>
  <sodipodi:namedview
     pagecolor="#ffffff"
     bordercolor="#666666"
     borderopacity="1"
     objecttolerance="10"
     gridtolerance="10"
     guidetolerance="10"
     inkscape:pageopacity="0"
     inkscape:pageshadow="2"
     inkscape:window-width="1920"
     inkscape:window-height="1016"
     id="namedview23"
     showgrid="false"
     inkscape:zoom="55.35253"
     inkscape:cx="8.0000252"
     inkscape:cy="7.5786956"
     inkscape:window-x="0"
     inkscape:window-y="27"
     inkscape:window-maximized="1"
     inkscape:current-layer="g19" />
  <defs
     id="defs15">
    <linearGradient
       id="a">
      <stop
         id="stop2"
         offset="0"
         stop-color="#68676b" />
      <stop
         id="stop4"
         offset=".8"
         stop-color="#424048" />
      <stop
         id="stop6"
         offset="1"
         stop-color="#E6DDFF" />
    </linearGradient>
    <radialGradient
       id="d"
       cx="279.422"
       cy="446.483"
       r="224"
       fx="279.422"
       fy="446.483"
       gradientTransform="matrix(1.34416,6e-4,-6.2e-4,1.38763,-121.22,-718.103)"
       gradientUnits="userSpaceOnUse"
       xlink:href="#a" />
    <linearGradient
       id="e"
       x1="43.844"
       x2="-60"
       y1="234"
       y2="234"
       gradientTransform="matrix(1.0015,0,0,0.99993,72.09,56.015)"
       gradientUnits="userSpaceOnUse"
       xlink:href="#b" />
    <linearGradient
       id="b">
      <stop
         id="stop11"
         offset="0"
         stop-color="#d5d3cf" />
      <stop
         id="stop13"
         offset=".038"
         stop-color="#e3e2df" />
      <stop
         id="stop15"
         offset=".077"
         stop-color="#c0bfbc" />
      <stop
         id="stop17"
         offset=".923"
         stop-color="#c0bfbc" />
      <stop
         id="stop19"
         offset=".962"
         stop-color="#e3e2df" />
      <stop
         id="stop21"
         offset="1"
         stop-color="#d5d3cf" />
    </linearGradient>
  </defs>
  <g
     transform="translate(-164.44203,-53.538243)"
     id="g19">
    <path
       style="fill:#444444"
       d="M 0.86328125 0.84375 C 0.20436125 0.82977 -0.10441 1.2850075 0.03125 2.0703125 C 0.07505 2.3234355 0.29744063 2.6843301 0.77539062 3.2832031 C 1.3068906 3.9489351 1.5203831 4.3134994 1.7519531 4.9433594 C 2.1170631 5.9361474 2.2857112 6.268247 2.5820312 6.578125 C 2.8127512 6.819796 2.8131231 6.820737 2.6582031 7.3125 C 2.4183831 8.074563 2.3678469 9.6031476 2.5605469 10.322266 C 2.8485269 11.397576 3.2040887 11.886719 3.6992188 11.886719 C 4.0520488 11.886719 4.3417325 11.590658 4.4453125 11.125 C 4.4815125 10.963324 4.5493931 10.733695 4.5957031 10.613281 C 4.6757031 10.40445 4.6976288 10.418827 5.0117188 10.931641 C 5.1936088 11.228888 5.5415331 11.672661 5.7832031 11.916016 C 6.3423231 12.479353 7.1084925 13.112486 7.1640625 13.058594 C 7.1876625 13.035854 6.9643688 12.705134 6.6679688 12.320312 C 5.6366887 9.3705145 8.7077662 12.045798 11.878906 11.109375 C 12.904536 11.464724 13.253738 11.62698 13.705078 11.951172 L 14.181641 12.292969 L 13.861328 12.355469 C 13.684498 12.389149 13.297786 12.444836 13.003906 12.478516 C 12.391726 12.549246 11.990234 12.802796 11.990234 13.121094 C 11.990234 13.479812 13.21231 14.507454 14.4375 15.177734 C 15.02695 15.500242 15.593696 15.817132 15.697266 15.882812 C 15.971776 16.059646 16.045339 16.03821 15.974609 15.806641 C 15.825559 15.319931 15.323034 14.845626 13.927734 13.873047 C 13.109254 13.302131 13.102313 13.323469 14.195312 13.214844 C 14.975053 13.137374 15.367188 13.005296 15.367188 12.818359 C 15.367188 12.732469 14.972471 12.275398 14.488281 11.804688 C 13.730431 11.066202 13.473142 10.883278 12.638672 10.476562 C 11.501892 9.9241715 11.088052 9.4860055 10.826172 8.5546875 C 10.435452 7.1652905 9.3852613 5.5338936 7.9882812 4.1503906 C 6.4650013 2.4849766 4.6310144 2.114936 2.8652344 1.5 C 2.4162544 1.195933 1.3726412 0.854528 0.86328125 0.84375 z M 2.9335938 2.1894531 A 0.85407393 0.64970859 34.436584 0 1 3.5976562 2.4257812 A 0.85407393 0.64970859 34.436584 0 1 3.8261719 3.4453125 A 0.85407393 0.64970859 34.436584 0 1 2.7265625 3.3964844 A 0.85407393 0.64970859 34.436584 0 1 2.4980469 2.3769531 A 0.85407393 0.64970859 34.436584 0 1 2.9335938 2.1894531 z "
       transform="translate(164.44203,53.538243)"
       id="path17" />
  </g>
</svg>
